X: 23214
T: Leaky Floodgates, The
R: polka
M: 2/4
K: Gmajor
de Bd|eB d2|BA AG/A/|BA A2|
de Bd|eB d2|BA BA|G2 G2:|
de/d/ Bd|ed gd|ed gd|BA A2|
de/d/ Bd|ed gd|BA AG/A/|BG G2:|

